X:0
T:Ode to Joy
C:Beethoven
M:4/4
L:1/4
Q:1/4=160
K:D
f f g a |a g    f e|d d    e f |[1 f>e e2 :|\
                               |[2 e>d d2 ||
e e f d |e f/g/ f d|e f/g/ f e |   d e A f-|
f f g a |a g    f e|d d    e f |   e>d d2 |]
